X:1
T:Anglais efter Per Nilsson Dahlberg
T:(SvL Skne nr. 237)
S:efter Per Nilsson Dahlberg
S:Svenska Ltar
R:Anglais
Z:Patrik Mnsson, 2009-01-03
O:Nym, Skne
M:2/4
L:1/16
K:Bb
|: d2(dc) BFDF | B,DFB d2fd | e2ed cdcB | (Ac)fA B4 :|
|: gf=ef bfdf | _edcd fdBd | cBcd ecAc | (FG)AF B4 :|
